packages/core/src/svgs/tokens/mono/SAIL.svg

<svg width="24" height="24" viewBox="0 0 24 24" fill="none" xmlns="http://www.w3.org/2000/svg">
<path d="M16.8646 19.5027C10.6377 11.7513 12.5403 6.27028 14.2701 4.49731C9.5998 8.75136 11.2431 15.4378 12.6485 18.2487C13.9457 19 15.9998 19.3945 16.8646 19.4973V19.5027Z" fill="white"/>
<path d="M5.83765 15.7513C6.0971 10.2486 11.5673 4.29188 14.2701 2C8.82141 8.99997 10.4863 15.5405 11.9998 17.9351L5.83765 15.7513Z" fill="white"/>
<path d="M3.89185 19.1892V17.6215C3.89185 17.6215 4.21617 17 5.18914 17C7.67562 17 15.1242 20.4161 17.5134 20.4378C18.8918 20.4487 19.6756 19.4378 20.1079 18.8756C19.6756 19.708 18.4 21.4703 16.3242 21.4703C13.7296 21.4703 8.95667 18.5621 5.18914 18.5621C4.41076 18.5621 3.99995 18.9783 3.89185 19.1892Z" fill="white"/>
<path d="M5.37254 18.8433C4.07524 18.8433 4.10767 20.3622 4.43199 20.9513C4.43199 20.654 4.70227 19.8973 5.37254 19.8973C6.32388 19.8919 12.5293 21.2216 15.7833 22.0001C12.8103 20.9459 7.67523 18.8433 5.37254 18.8433Z" fill="white"/>
</svg>

<svg xmlns="http://www.w3.org/2000/svg" width="24" height="24" fill="none" viewBox="0 0 24 24">
    <path fill="#fff" d="M16.865 19.503C10.638 11.75 12.54 6.27 14.27 4.497c-4.67 4.254-3.027 10.94-1.62 13.753 1.297.751 3.35 1.146 4.216 1.248z"/>
    <path fill="#fff" d="M5.838 15.751C6.098 10.25 11.568 4.291 14.27 2 8.821 9 10.486 15.54 12 17.935z"/>
    <path fill="#fff" d="M3.892 19.19v-1.57S4.216 17 5.189 17c2.487 0 9.935 3.416 12.324 3.438 1.379.01 2.163-1 2.595-1.562-.432.832-1.708 2.594-3.784 2.594-2.594 0-7.367-2.908-11.135-2.908-.778 0-1.189.416-1.297.627"/>
    <path fill="#fff" d="M5.373 18.843c-1.298 0-1.265 1.52-.941 2.108 0-.297.27-1.054.94-1.054.952-.005 7.157 1.325 10.411 2.103-2.973-1.054-8.108-3.157-10.41-3.157"/>
</svg>
